storage/app/icons/phosphoricons/light/replit-logo-light.svg

<svg xmlns="http://www.w3.org/2000/svg" fill="currentColor" viewBox="0 0 256 256"><path d="M216 90h-66V40a14 14 0 0 0-14-14H72a14 14 0 0 0-14 14v48a14 14 0 0 0 14 14h66v52H72a14 14 0 0 0-14 14v48a14 14 0 0 0 14 14h64a14 14 0 0 0 14-14v-50h66a14 14 0 0 0 14-14v-48a14 14 0 0 0-14-14m-78 126a2 2 0 0 1-2 2H72a2 2 0 0 1-2-2v-48a2 2 0 0 1 2-2h66Zm0-126H72a2 2 0 0 1-2-2V40a2 2 0 0 1 2-2h64a2 2 0 0 1 2 2Zm80 62a2 2 0 0 1-2 2h-66v-52h66a2 2 0 0 1 2 2Z"/></svg>

<svg xmlns="http://www.w3.org/2000/svg" viewBox="0 0 256 256" fill="currentColor"><path d="M216,90H150V40a14,14,0,0,0-14-14H72A14,14,0,0,0,58,40V88a14,14,0,0,0,14,14h66v52H72a14,14,0,0,0-14,14v48a14,14,0,0,0,14,14h64a14,14,0,0,0,14-14V166h66a14,14,0,0,0,14-14V104A14,14,0,0,0,216,90ZM138,216a2,2,0,0,1-2,2H72a2,2,0,0,1-2-2V168a2,2,0,0,1,2-2h66Zm0-126H72a2,2,0,0,1-2-2V40a2,2,0,0,1,2-2h64a2,2,0,0,1,2,2Zm80,62a2,2,0,0,1-2,2H150V102h66a2,2,0,0,1,2,2Z"/></svg>
